!!!!SEGMENT: pl-gd--ee-1638--006-027_marenzio-luca--il-quinto-libro-de-madrigalia-a-cinque-voci-non-vede-un-similpar.krn
!!!cenid: 15xx:909
!!!COM: Marenzio, Luca
!!!COM-rismID: pe30003955
!!!CDT: ~1553-1599/08/22
!!!CNT: Italian
!!!GTL: Il Quinto libro de madrigalia a cinque voci
!!!OTL: Non vede un similpar
!!!OMV: 027
!!!PDT: 1585
!!!AGN:
!!!SMS-siglum: PL-GD
!!!SMS-shelfmark: Ee 1638
!!!SMS-variant:
!!!SMS-altvar:
!!!SMS-shelfwork: 006-027 G
!!!NIFC-rismSourceID: 990039296
!!!NIFC-islandoraID: pl-gd:57883
!!!URL-pdf-islandora: https://repozytorium.nifc.pl/islandora/object/pl-gd%3A57883/datastream/PDF/view
!!!URL-scan: https://polish.musicsources.pl/pl/lokalizacje/galeria/klocki-introligatorskie/655 @EN{Scan on Polish Music Sources Website} @PL{Skany w portalu Dziedzictwo Muzyki Polskiej w otwartym dostępie}
!!!ONB-nifc:
!!!AIN: 1 alto 1 bass 2 soprn 1 tenor
!!!key: G:mix
**kern	**text	**kern	**text	**kern	**text	**kern	**text	**kern	**text
*part5	*part5	*part4	*part4	*part3	*part3	*part2	*part2	*part1	*part1
*staff5	*staff5	*staff4	*staff4	*staff3	*staff3	*staff2	*staff2	*staff1	*staff1
*I"QUINTO	*	*I"BASSO	*	*I"TENORE	*	*I"ALTO	*	*I"CANTO	*
*I'voce umana	*	*I'B	*	*I'T	*	*I'A	*	*I'S	*
*Isoprn	*	*Ibass	*	*Itenor	*	*Ialto	*	*Isoprn	*
*ICvox	*	*ICvox	*	*ICvox	*	*ICvox	*	*Cvox	*
*clefC1	*	*clefF4	*	*clefC4	*	*clefC3	*	*clefC1	*
*k[b-]	*	*k[b-]	*	*k[b-]	*	*k[b-]	*	*k[b-]	*
*G:mix	*	*G:mix	*	*G:mix	*	*G:mix	*	*G:mix	*
*M2/1	*	*M2/1	*	*M2/1	*	*M2/1	*	*M2/1	*
*met(c)	*	*	*	*	*	*	*	*	*
=1-	=1-	=1-	=1-	=1-	=1-	=1-	=1-	=1-	=1-
!LO:TX:t=P:problem:str 83	!	!	!	!	!	!	!	!	!
!LO:TX:a:t=Seconda parte	!	!	!	!	!	!	!	!	!
*	*	*met(c)	*	*	*	*	*	*	*
!	!	!LO:TX:t=P:problem:zdwojony znak przykluczowy	!	!	!	!	!	!	!
!	!	!LO:TX:b:t=Non vede	!	!	!	!	!	!	!
!	!	!LO:TX:t=P:problem:str 235	!	!	!	!	!	!	!
!	!	!LO:TX:a:t=Seconda parte	!	!	!	!	!	!	!
*	*	*	*	*met(c)	*	*	*	*	*
!	!	!	!	!LO:TX:b:t=Non ved`e	!	!	!	!	!
!	!	!	!	!LO:TX:a:t=Seconda parte.	!	!	!	!	!
!	!	!	!	!LO:TX:t=P:problem:str 387	!	!	!	!	!
*	*	*	*	*	*	*met(c)	*	*	*
!	!	!	!	!	!	!LO:TX:b:t=Non vede	!	!	!
!	!	!	!	!	!	!LO:TX:t=P:problem:str 539	!	!	!
!	!	!	!	!	!	!LO:TX:a:t=Seconda parte	!	!	!
*	*	*	*	*	*	*	*	*met(c)	*
!	!	!	!	!	!	!	!	!LO:TX:t=P:problem:str 691	!
!	!	!	!	!	!	!	!	!LO:TX:a:t=Seconda parte	!
2a\	Non	0r	.	0r	.	0r	.	2r	.
1dd	ved`-	.	.	.	.	.	.	2d/	Non
.	.	.	.	.	.	.	.	2g/	ve-
4dd\	-un	.	.	.	.	.	.	4b-\	-d`un
2cc\	ſi-	.	.	.	.	.	.	2a\	ſi-
=2-	=2-	=2-	=2-	=2-	=2-	=2-	=2-	=2-	=2-
.	.	0ryy	.	0ryy	.	0ryy	.	.	.
4b-\	-mil	.	.	.	.	.	.	4g/	-mil
4a\	par	.	.	.	.	.	.	4f/	par
4g\	d`a-	.	.	.	.	.	.	4b-\	d`a-
2f/	-man-	.	.	.	.	.	.	2a\	-man-
2f/	-t`il	.	.	.	.	.	.	4d/	-t`il
.	.	.	.	.	.	.	.	2dd\	ſo-
=3-	=3-	=3-	=3-	=3-	=3-	=3-	=3-	=3-	=3-
1e	ſo-	0r	.	0r	.	1r	.	.	.
.	.	.	.	.	.	.	.	8cc#X\	.
.	.	.	.	.	.	.	.	8bn\	.
.	.	.	.	.	.	.	.	2cc#X\	.
!	!	!	!	!	!	!	!	!LO:SIC:v:t=custos d	!
2d/	-le	.	.	.	.	2r	.	2dd\	-le
!	!	!	!	!	!	!	!	!LO:LB:g=original	!
4r	.	.	.	.	.	2d\	Di-	4r	.
4f/	Di-	.	.	.	.	.	.	4d/	Di-
=4-	=4-	=4-	=4-	=4-	=4-	=4-	=4-	=4-	=4-
4g/	-cea	0ryy	.	0ryy	.	4c/	-cea	4e/	-cea
!LO:SIC:v:t=custos b	!	!	!	!	!	!	!	!	!
4a\	ri-	.	.	.	.	4A/	ri-	4f#X/	ri-
!LO:LB:g=original	!	!	!	!	!	!	!	!	!
8b-\	-den-	.	.	.	.	1.G	-den-	8g\	-den-
8a\	.	.	.	.	.	.	.	8f#/	.
8b-\	.	.	.	.	.	.	.	8g\	.
8cc\	.	.	.	.	.	.	.	8a\	.
8dd\	.	.	.	.	.	.	.	8b-ny\	.
8cc\	.	.	.	.	.	.	.	8a\	.
8b-\	.	.	.	.	.	.	.	8b-\	.
8a\	.	.	.	.	.	.	.	8ccny\	.
4.b-\	.	.	.	.	.	.	.	4.dd\	.
16a\	.	.	.	.	.	.	.	16cc\	.
16g\	.	.	.	.	.	.	.	16b-\	.
=5-	=5-	=5-	=5-	=5-	=5-	=5-	=5-	=5-	=5-
2f#X/	.	2r	.	2r	.	2d\	-do	2a\	-do
2f#/	-d`e	2D/	E	2A/	E	4r	.	2a\	e
.	.	.	.	.	.	4d\	E	.	.
4r	.	4r	.	4r	.	4r	.	4r	.
4.g/	ſoſ-	4.GG/	ſoſ-	4.G/	ſoſ-	4.d\	ſoſ-	4.bn\	ſoſ-
8g/	-pi-	8GG/	-pi-	8G/	-pi-	8d\	-pi-	8b\	-pi-
2g/	-ran-	2C/	-ran-	2G/	-ran-	2e\	-ran-	2cc\	-ran-
=6-	=6-	=6-	=6-	=6-	=6-	=6-	=6-	=6-	=6-
.	-do	.	-do	.	-do	.	-do	.	-do
!	!	!	!	!	!	!	!	!LO:SIC:v:t=custos dd	!
4a\	in-	4FF/	in-	4F/	in-	4f\	in-	4cc\	in-
!	!	!	!	!	!	!	!	!LO:LB:g=original	!
1b-	-ſie-	1BB-	-ſie-	1F	-ſie-	1d	-ſie-	1dd	-ſie-
!	!	!	!	!	!	!LO:SIC:v:t=custos B	!	!	!
2a\	-me	2FF/	-me	4F/	-me	2f\	-me	2cc\	-me
.	.	.	.	2c\	E	.	.	.	.
=7-	=7-	=7-	=7-	=7-	=7-	=7-	=7-	=7-	=7-
!	!	!	!	!	!	!LO:LB:g=original	!	!	!
1r	.	2F\	E	.	.	2r	.	0r	.
.	.	.	.	4c\	ſtrin-	.	.	.	.
.	.	4F\	ſtrin-	4.d\	-gen-	4r	.	.	.
.	.	4.G\	-gen-	.	.	2B-/	E	.	.
!	!	!	!	!LO:SIC:v:t=custos d	!	!	!	!	!
.	.	.	.	8c\	-d`am-	.	.	.	.
!	!	!	!	!LO:LB:g=original	!	!	!	!	!
2r	.	.	.	4d\	-be-	.	.	.	.
.	.	8F\	-d`am-	.	.	.	.	.	.
!	!	!LO:SIC:v:t=custos A	!	!	!	!	!	!	!
.	.	4G\	-be-	2e\	-due	4Bn/	ſtrin-	.	.
!LO:SIC:v:t=custos E	!	!	!	!	!	!	!	!	!
!	!	!LO:LB:g=original	!	!	!	!	!	!	!
2e/	E	2A\	-due	.	.	4.c/	-gen-	.	.
.	.	.	.	4r	.	.	.	.	.
.	.	.	.	.	.	8Bn/	-d`am-	.	.
=8-	=8-	=8-	=8-	=8-	=8-	=8-	=8-	=8-	=8-
!LO:LB:g=original	!	!	!	!	!	!	!	!	!
4e/	ſtrin-	4r	.	2r	.	4c#X/	-be-	2a\	E
4.fny/	-gen-	2D/	E	.	.	2d\	-due	.	.
.	.	.	.	1d	E	.	.	2a\	ſtrin-
8e/	-d`am-	.	.	.	.	.	.	.	.
4f#X/	-be-	4D/	ſtrin-	.	.	4r	.	.	.
1g	-due	4.G\	-gen-	.	.	1r	.	4.bn\	-gen-
.	.	8F#X\	-d`am-	.	.	.	.	8a\	-d` am-
.	.	4G\	-be-	4d\	ſtrin-	.	.	4bn\	-be-
.	.	2C/	-due	4.e\	-gen-	.	.	2cc\	-due
=9-	=9-	=9-	=9-	=9-	=9-	=9-	=9-	=9-	=9-
4r	.	.	.	.	.	2cny/	vol-	.	.
.	.	.	.	8d\	-d`am-	.	.	.	.
4cc\	vol-	4C/	vol-	4e\	-be-	.	.	4g/	vol-
8cc\	-gea-	8Fny\	-gea-	4f\	-due	8A/	-ge-	8a\	-ge-
8b-\	.	8G\	.	.	.	8B-ny/	-a-	8g/	-a-
8a\	.	8A\	.	4F/	vol-	8c/	.	8fny/	.
8b-\	.	8G\	.	.	.	8B-/	.	8g/	.
4cc\	.	2F\	-ſi	8c\	-ge-	4A/	.	4a\	.
.	.	.	.	8B-\	-a-	.	.	.	.
4cc\	-ſi	.	.	8A\	.	4A/	-ſi	4a\	ſi
.	.	.	.	8B-\	.	.	.	.	.
8cc\	a-	2F\	a-	2.c\	.	8A/	a-	8a\	a-
8b-\	-tor-	.	.	.	.	8B-/	-tor-	8g/	-tor-
8a\	.	.	.	.	.	8c/	.	8f/	.
!	!	!	!	!	!	!LO:SIC:v:t=custos A	!	!	!
8g\	.	.	.	.	.	8B-/	.	8g/	.
=10-	=10-	=10-	=10-	=10-	=10-	=10-	=10-	=10-	=10-
!	!	!	!	!	!	!LO:LB:g=original	!	!	!
1fny	.	8F\	-tor-	.	.	4A/	.	4a\	.
.	.	8E\	.	.	.	.	.	.	.
.	.	8D\	.	4d\	-ſi	4F/	-no	2b-ny\	.
!	!	!LO:SIC:v:t=custos F	!	!	!	!	!	!	!
.	.	8E\	.	.	.	.	.	.	.
!	!	!LO:LB:g=original	!	!	!	!	!	!	!
.	.	2F\	.	2c\	a-	2r	.	.	.
!	!	!	!	!	!	!	!	!LO:SIC:v:t=custos b	!
.	.	.	.	.	.	.	.	4a\	.
!	!	!	!	!	!	!	!	!LO:LB:g=original	!
1f	-no	2BB-/	-no	1B-	-torno	2r	.	2b-\	-no
.	.	2B-\	Co-	.	.	2d\	Co-	2f/	Co-
=11-	=11-	=11-	=11-	=11-	=11-	=11-	=11-	=11-	=11-
2r	.	1B-	-ſi	2r	.	1d	-ſi	1f	-ſi
2dd\	Co-	.	.	2B-\	Co-	.	.	.	.
2dd\	-ſi	4r	.	2B-\	-ſi	2f\	Co-	4r	.
.	.	4B-\	Co-	.	.	.	.	4dd\	Co-
!LO:SIC:v:t=custos a	!	!	!	!	!	!	!	!	!
2r	.	4B-\	-ſi	2r	.	2f\	-ſi	4dd\	-ſi
.	.	4F\	par-	.	.	.	.	4a\	par-
=12-	=12-	=12-	=12-	=12-	=12-	=12-	=12-	=12-	=12-
!LO:LB:g=original	!	!	!	!	!	!	!	!	!
!	!	!	!	!LO:LB:g=original	!	!	!	!	!
4r	.	4G\	-tia	2d\	/Co-	4r	.	4b-\	-tia
4a\	par-	4A\	le	.	.	4f\	par-	4cc\	le
4f/	-tia	2B-\	ro-	2d\	-ſi/	4d\	-tia	2dd\	ro-
4g/	le	.	.	.	.	4e\	le	.	.
4a\	ro-	4F\	-ſe e	1r	.	4f\	ro-	4cc\	-ſe e
4dd\	-ſe e	2G\	le	.	.	4d\	-ſe e	2b-\	le
4b-\	le	.	.	.	.	4g\	le	.	.
4dd\	pa-	4D/	pa-	.	.	4f\	pa-	4a\	pa-
=13-	=13-	=13-	=13-	=13-	=13-	=13-	=13-	=13-	=13-
2cc#X\	-ro-	2A\	-ro-	2r	.	2e\	-ro-	2a\	-ro-
2ee\	-le	2D/	-le	4r	.	2f\	-le	2a\	-le
.	.	.	.	2d\	On-	.	.	.	.
2r	.	2.G\	On-	.	.	2.B-/	On-	2r	.
.	.	.	.	4d\	-de`l	.	.	.	.
2.g/	On-	.	.	1d\	cor	.	.	2.b-\	On-
.	.	4G\	-de`l	.	.	4B-/	-de`l	.	.
=14-	=14-	=14-	=14-	=14-	=14-	=14-	=14-	=14-	=14-
.	.	1G	cor	.	.	4.B-/	cor	.	.
4g/	-de`l	.	.	.	.	.	.	4b-\	-de`l
!	!	!	!	!	!	!LO:SIC:v:t=custos d	!	!	!
.	.	.	.	.	.	8c/	On-	.	.
!	!	!	!	!	!	!LO:LB:g=original	!	!	!
1g	cor	.	.	2.B-\	On-	2d\	-de`l	1b-	cor
.	.	2.E-X\	On-	.	.	2.G/	cor	.	.
.	.	.	.	4B-\	-de`l	.	.	.	.
2.e-X/	On-	.	.	1B-\	cor	.	.	2.g/	On-
!	!	!LO:SIC:v:t=custos E	!	!	!	!	!	!	!
.	.	4E-\	-de`l	.	.	4G/	.	.	.
=15-	=15-	=15-	=15-	=15-	=15-	=15-	=15-	=15-	=15-
!	!	!LO:LB:g=original	!	!	!	!	!	!	!
.	.	1Eny	cor	.	.	4.G/	.	.	.
!	!	!	!	!	!	!	!	!LO:SIC:v:t=custos g	!
4e-X/	-de`l	.	.	.	.	.	.	4g/	-de`l
.	.	.	.	.	.	8A/	.	.	.
!	!	!	!	!	!	!	!	!LO:LB:g=original	!
1e-	cor	.	.	1A	laſ-	2B-/	.	1g	cor
.	.	1C	laſ-	.	.	4c/	laſ-	.	.
.	.	.	.	.	.	8B-/	.	.	.
.	.	.	.	.	.	8A/	.	.	.
1c/	laſ-	.	.	2C/	-ſo	2G/	.	1e-X/	laſ-
=16-	=16-	=16-	=16-	=16-	=16-	=16-	=16-	=16-	=16-
.	.	1GG	-ſo	2r	.	1G	-ſo	.	.
2Bn/	-ſo	.	.	4r	.	.	.	2d/	-ſo
.	.	.	.	2G/	an-	.	.	.	.
1r	.	4r	.	.	.	4r	.	4r	.
.	.	4C/	an-	4.c\	-chor-	4g\	an-	4e-/	an-
.	.	4.F\	-chor-	.	.	4.f\	-chor-	4.a\	-chor-
.	.	.	.	8A/	-s`al-	.	.	.	.
.	.	.	.	4d\	-le-	.	.	.	.
.	.	8D/	-s`al-	.	.	8f\	-s`al-	8f/	-s`al-
=17-	=17-	=17-	=17-	=17-	=17-	=17-	=17-	=17-	=17-
4r	.	4E\	-leg-	2G/	-gra	2e\	-le-	4g/	-le-
!LO:SIC:v:t=custos cc	!	!	!	!	!	!	!	!	!
4g/	an-	4C/	-ra	.	.	.	.	4eny/	-gra
!LO:LB:g=original	!	!	!	!	!	!	!	!	!
4.ccny\	-chor-	4C/	an-	4g\	an-	2c/	-gra	4e/	an-
.	.	4.F\	-chor-	4.f\	-chor-	.	.	4.a\	-chor-
8a\	-s` al-	.	.	.	.	.	.	.	.
4dd\	-leg-	.	.	.	.	4r	.	.	.
!	!	!	!	!LO:SIC:v:t=custos e	!	!	!	!	!
.	.	8D\	-s`al-	8f\	-s`al-	.	.	8f/	-s` al-
!	!	!	!	!LO:LB:g=original	!	!	!	!	!
4cc\	-ra e	4E\	-leg-	2e\	-le-	4c/	an-	2g\	-le-
4.cc\	te-	4C/	-ra e	.	.	4c/	-chor	.	.
!	!	!	!	!	!	!LO:SIC:v:t=custos f	!	!	!
.	.	4.F\	te-	2c\	-gra e	4A/	s`al-	2a\	-gra e
8b-\	.	.	.	.	.	.	.	.	.
=18-	=18-	=18-	=18-	=18-	=18-	=18-	=18-	=18-	=18-
!	!	!	!	!	!	!LO:LB:g=original	!	!	!
8a\	.	.	.	.	.	2.f\	-le-	.	.
8g\	.	8E\	.	.	.	.	.	.	.
4f/	.	8D\	.	4.d\	te-	.	.	4.b-\	te-
.	.	8C/	.	.	.	.	.	.	.
4d/	-me	4.BB-/	.	.	.	.	.	.	.
.	.	.	.	8c\	.	.	.	8a\	.
4dd\	e	.	.	4B-\	.	4d\	-gra e	2g/	.
!	!	!LO:SIC:v:t=custos D	!	!	!	!	!	!	!
.	.	8C/	.	.	.	.	.	.	.
!	!	!LO:LB:g=original	!	!	!	!	!	!	!
2dd\	te-	2D/	.	2A/	-me	2d\	te-	.	.
.	.	.	.	.	.	.	.	4f#X/	.
2bn\	-me	2GG/	-me	2r	.	2d\	-me	2g/	-me
=19-	=19-	=19-	=19-	=19-	=19-	=19-	=19-	=19-	=19-
2r	.	0r	.	2r	.	2r	.	2r	.
!	!	!	!	!	!	!	!	!LO:SIC:v:t=custos a	!
1dd	O	.	.	1B-	O	1f	O	1b-	O
!	!	!	!	!	!	!	!	!LO:LB:g=original	!
4cc\	fe-	.	.	4F/	fe-	4f\	fe-	4a\	fe-
2cc\	-li-	.	.	2F/	-li-	2f\	-li-	2a\	-li-
=20-	=20-	=20-	=20-	=20-	=20-	=20-	=20-	=20-	=20-
.	.	0ryy	.	.	.	.	-ce	.	-ce
2b#\	ce e	.	.	2G/	-ce e-	2d\	e-	2dd\	e-
4g/	lo-	.	.	4E-X/	-lo-	4G/	-lo-	4cc\	-lo-
2f#X/	-quen-	.	.	2D/	-quen-	2A/	-quen-	2dd\	-quen-
2f#/	-tia	.	.	2D/	-tia	2d\	-tia	2a\	-tia
=21-	=21-	=21-	=21-	=21-	=21-	=21-	=21-	=21-	=21-
2r	.	2r	.	0r	.	2r	.	2r	.
!LO:SIC:v:t=custos a	!	!	!	!	!	!	!	!	!
1b-ny	O	1BB-	O	.	.	1f	O	1dd	O
!LO:LB:g=original	!	!	!	!	!	!	!	!	!
4a\	fe-	4F\	fe-	.	.	4f\	fe-	4cc\	fe-
2a\	-li-	2F\	-li-	.	.	2f\	-li-	2cc\	-li-
=22-	=22-	=22-	=22-	=22-	=22-	=22-	=22-	=22-	=22-
.	.	.	.	0r	.	.	-ce	.	-ce
2dd\	-ce e-	2G\	-ce e-	.	.	2d\	e-	2b-\	e-
4cc\	-lo-	4E-X\	-lo-	.	.	4G/	-lo-	4g/	-lo-
2dd\	-quentia	2D\	-quentia	.	.	2A/	-quentia	2f#X/	-quentia
4a\	o	4D\	o	.	.	4d\	O	4f#/	e
2b-\	lie-	2G\	lie-	.	.	2d\	lie-	2g/	lie-
=23-	=23-	=23-	=23-	=23-	=23-	=23-	=23-	=23-	=23-
.	.	.	.	1r	.	.	.	.	.
!	!	!	!	!	!	!LO:SIC:v:t=custos c	!	!	!
4g\	-to	4B-\	-to	.	.	4d\	-to	4d/	-to
!	!	!	!	!	!	!LO:LB:g=original	!	!	!
2a\	gior-	2A\	gior-	.	.	2c#X/	gior-	2e/	gior-
1a	-no	1D	-no	2r	.	1d	-no	1f#X	-no
.	.	.	.	2.d\	O	.	.	.	.
=24-	=24-	=24-	=24-	=24-	=24-	=24-	=24-	=24-	=24-
4dd\	O	4GG/	O	.	.	4B-/	O	4g/	e
!	!	!	!	!	!	!	!	!LO:SIC:v:t=custos g	!
2ee-X\	lie-	2C/	lie-	2c\	lie-	2G/	lie-	2g/	lie-
4cc\	-to	4E-X\	-to	4G/	-to	4G/	-to	2g/	-to
1dd	gior-	1D	gior-	1A	gior-	1d	gior-	.	.
.	.	.	.	.	.	.	.	8f#X/	gior-
.	.	.	.	.	.	.	.	8e/	.
.	.	.	.	.	.	.	.	2f#X/	.
=25-	=25-	=25-	=25-	=25-	=25-	=25-	=25-	=25-	=25-
00b#	-no.	00GG	-no.	00G	-no.	00d	-no.	00g	-no.
=26-	=26-	=26-	=26-	=26-	=26-	=26-	=26-	=26-	=26-
.	.	.	.	.	.	.	.	.	.
=-	=-	=-	=-	=-	=-	=-	=-	=-	=-
*-	*-	*-	*-	*-	*-	*-	*-	*-	*-
!!!system-decoration: [(s1,s2,s3,s4,s5)]
!!!ENC: Filip Voros
!!!END: 2022-06-11
!!!ENC: Urszula Świątek
!!!END: 2022-07-21
